X: 16011
T: Great North Run, The
R: barndance
M: 4/4
K: Gmajor
|:D2|G2 G2 FGAF|GABc d2 B2|e2 ce dB G2|ABAG E2 D2|
G2 G2 FGAF|GABc d2 B2|e2 ce dBGB|A2 F2 G2:|
|:d2|g2 g2 fe d2|efge d2 B2|cBAc B2 G2|ABAG E2 D2|
G2 G2 FGAF|GABc d2 B2|e2 ce dBGB|A2 F2 G2:|

